svgs/thin/gift-card.svg

<svg xmlns="http://www.w3.org/2000/svg" viewBox="0 0 576 512"><!--! Font Awesome Pro 6.5.1 by @fontawesome - https://fontawesome.com License - https://fontawesome.com/license (Commercial License) Copyright 2023 Fonticons, Inc. --><path d="M405.1 16c-20.3 0-39.2 10.5-50 27.7L302.4 128H328h80c30.9 0 56-25.1 56-56s-25.1-56-56-56h-2.9zM273.6 128L220.9 43.7C210.1 26.5 191.2 16 170.9 16H168c-30.9 0-56 25.1-56 56s25.1 56 56 56h80 25.6zm14.4-7.1l53.6-85.7C355.3 13.3 379.3 0 405.1 0H408c39.8 0 72 32.2 72 72c0 22.6-10.4 42.8-26.7 56H512c35.3 0 64 28.7 64 64V448c0 35.3-28.7 64-64 64H64c-35.3 0-64-28.7-64-64V192c0-35.3 28.7-64 64-64h58.7C106.4 114.8 96 94.6 96 72c0-39.8 32.2-72 72-72h2.9c25.8 0 49.8 13.3 63.5 35.2L288 120.9zM168 144H64c-26.5 0-48 21.5-48 48v96H560V192c0-26.5-21.5-48-48-48H408 328 305.1l69.1 82.9c2.8 3.4 2.4 8.4-1 11.3s-8.4 2.4-11.3-1L288 148.5l-73.9 88.6c-2.8 3.4-7.9 3.9-11.3 1s-3.9-7.9-1-11.3L270.9 144H248 168zM16 304v96H560V304H16zM560 448V416H16v32c0 26.5 21.5 48 48 48H512c26.5 0 48-21.5 48-48z"/></svg>

<svg xmlns="http://www.w3.org/2000/svg" viewBox="0 0 576 512"><!--! Font Awesome Pro 6.1.1 by @fontawesome - https://fontawesome.com License - https://fontawesome.com/license (Commercial License) Copyright 2022 Fonticons, Inc. --><path d="M288 120.9L341.6 35.21C355.3 13.31 379.3 0 405.1 0H408C447.8 0 480 32.24 480 72C480 94.62 469.6 114.8 453.3 128H512C547.3 128 576 156.7 576 192V448C576 483.3 547.3 512 512 512H64C28.65 512 0 483.3 0 448V192C0 156.7 28.65 128 64 128H122.7C106.4 114.8 96 94.62 96 72C96 32.24 128.2 0 168 0H170.9C196.7 0 220.8 13.31 234.4 35.21L288 120.9zM405.1 16C384.8 16 365.9 26.46 355.1 43.69L302.4 128H408C438.9 128 464 102.9 464 72C464 41.07 438.9 16 408 16H405.1zM273.6 128L220.9 43.69C210.1 26.46 191.2 16 170.9 16H168C137.1 16 112 41.07 112 72C112 102.9 137.1 128 168 128H273.6zM64 144C37.49 144 16 165.5 16 192V288H560V192C560 165.5 538.5 144 512 144H305.1L374.1 226.9C376.1 230.3 376.5 235.3 373.1 238.1C369.7 240.1 364.7 240.5 361.9 237.1L288 148.5L214.1 237.1C211.3 240.5 206.3 240.1 202.9 238.1C199.5 235.3 199 230.3 201.9 226.9L270.9 144H64zM16 304V400H560V304H16zM560 448V416H16V448C16 474.5 37.49 496 64 496H512C538.5 496 560 474.5 560 448z"/></svg>
